X:1
T:Reed's Favorite -- Reel
R:reel
B:Ryan's Mammoth Collection
Z:Contributed by Ray Davies,  ray:davies99.freeserve.co.uk
M:2/4
L:1/16
K:C
kC2 ((3cBc) ke2 ((3cBc) | EGcG ecag | kf2 ((3d^cd) kA2 ((3d^cd) | cBdc =
ecGE |=20
kC2 ((3cBc) ke2 ((3cBc) | EGcG ecag | ka2 ((3fef)  kd2 ((3G^FG) | cBed =
c2  ::
vgfdB GBDG | agec GcEc | bafd BdGB  | cBdc e2 z2  |=20
 gfdB GBDG | agec GcEc | bafd Bd^FG | ABed c2 z2 :|
